icons/24x24_money_add_outline.svg

<svg xmlns="http://www.w3.org/2000/svg" width="24" height="24" viewBox="0 0 24 24">
  <path d="M22,14.3414114 C21.3744421,14.1203084 20.7012708,14 20,14 L20,8 C21.1045695,8 22,8.8954305 22,10 L22,14.3414114 Z M14,20 L8,20 C6.8954305,20 6,19.1045695 6,18 L14.3414114,18 C14.1203084,18.6255579 14,19.2987292 14,20 Z M17.9690445,14.3524488 C17.0221834,14.6930067 16.1857024,15.2649189 15.527787,16 L4,16 C2.8954305,16 2,15.1045695 2,14 L2,6 C2,4.8954305 2.8954305,4 4,4 L16,4 C17.1045695,4 18,4.8954305 18,6 L18,14 C18,14.1202571 17.9893863,14.2380353 17.9690445,14.3524488 Z M4,6 L4,14 L16,14 L16,6 L4,6 Z M10,12.5 C8.61928813,12.5 7.5,11.3807119 7.5,10 C7.5,8.61928813 8.61928813,7.5 10,7.5 C11.3807119,7.5 12.5,8.61928813 12.5,10 C12.5,11.3807119 11.3807119,12.5 10,12.5 Z M21,19 L23,19 C23.5522847,19 24,19.4477153 24,20 C24,20.5522847 23.5522847,21 23,21 L21,21 L21,23 C21,23.5522847 20.5522847,24 20,24 C19.4477153,24 19,23.5522847 19,23 L19,21 L17,21 C16.4477153,21 16,20.5522847 16,20 C16,19.4477153 16.4477153,19 17,19 L19,19 L19,17 C19,16.4477153 19.4477153,16 20,16 C20.5522847,16 21,16.4477153 21,17 L21,19 Z"/>
</svg>

<svg width="24" height="24" fill="none" xmlns="http://www.w3.org/2000/svg"><path d="M22 14.341A5.99 5.99 0 0 0 20 14V8a2 2 0 0 1 2 2v4.341ZM14 20H8a2 2 0 0 1-2-2h8.341A5.99 5.99 0 0 0 14 20Zm3.969-5.648A6.009 6.009 0 0 0 15.528 16H4a2 2 0 0 1-2-2V6a2 2 0 0 1 2-2h12a2 2 0 0 1 2 2v8c0 .12-.01.238-.031.352ZM4 6v8h12V6H4Zm6 6.5a2.5 2.5 0 1 1 0-5 2.5 2.5 0 0 1 0 5ZM21 19h2a1 1 0 1 1 0 2h-2v2a1 1 0 1 1-2 0v-2h-2a1 1 0 1 1 0-2h2v-2a1 1 0 1 1 2 0v2Z" fill="#000"/></svg>
